; generated by PrusaSlicer 2.6.0+win64 on 2023-07-11 at 14:56:09 UTC


;
;
; 

; external perimeters extrusion width = 0.45mm
; perimeters extrusion width = 0.45mm
; infill extrusion width = 0.45mm
; solid infill extrusion width = 0.45mm
; top infill extrusion width = 0.40mm
; first layer extrusion width = 0.42mm

M73 P0 R15
M73 Q0 S15
M201 X1000 Y1000 Z200 E5000 ; sets maximum accelerations, mm/sec^2
M203 X200 Y200 Z12 E120 ; sets maximum feedrates, mm / sec
M204 S1250 T1250 ; sets acceleration (S) and retract acceleration (R), mm/sec^2
M205 X8.00 Y8.00 Z0.40 E4.50 ; sets the jerk limits, mm/sec
M205 S0 T0 ; sets the minimum extruding and travel feed rate, mm/sec
;TYPE:Custom
M862.3 P "MK3S" ; printer model check
M862.1 P0.4 ; nozzle diameter check
M115 U3.12.2 ; tell printer latest fw version
G90 ; use absolute coordinates
M83 ; extruder relative mode
M104 S215 ; set extruder temp
M140 S60 ; set bed temp
M190 S60 ; wait for bed temp
M109 S215 ; wait for extruder temp
G28 W ; home all without mesh bed level
G80 ; mesh bed leveling

G1 Z0.2 F720
G1 Y-3 F1000 ; go outside print area
G92 E0
G1 X60 E9 F1000 ; intro line
G1 X100 E12.5 F1000 ; intro line

G92 E0
M221 S95

; Don't change E values below. Excessive value can damage the printer.
M907 E430 ; set extruder motor current
G21 ; set units to millimeters
G90 ; use absolute coordinates
M83 ; use relative distances for extrusion
M900 K0.05 ; Filament gcode LA 1.5
M900 K30 ; Filament gcode LA 1.0
M107
;LAYER_CHANGE
;Z:0.2
;HEIGHT:0.2
;BEFORE_LAYER_CHANGE
G92 E0.0
;0.2


G1 E-.8 F2100
G1 Z.4 F720
;AFTER_LAYER_CHANGE
;0.2
G1 X118.262 Y99.48 F10800
G1 Z.2 F720
G1 E.8 F2100
M204 S800
;TYPE:Skirt/Brim
;WIDTH:0.42
G1 F1200
G1 X119.344 Y98.342 E.04923
G1 X121 Y97.869 E.054
G1 X129 Y97.869 E.25083
G1 X130.52 Y98.262 E.04923
G1 X131.658 Y99.344 E.04923
G1 X132.131 Y101 E.054
G1 X132.131 Y109 E.25083
G1 X131.738 Y110.52 E.04923
G1 X130.656 Y111.658 E.04923
G1 X129 Y112.131 E.054
G1 X121 Y112.131 E.25083
G1 X119.48 Y111.738 E.04923
M73 Q1 S15
G1 X118.342 Y110.656 E.04923
G1 X117.869 Y109 E.054
G1 X117.869 Y101 E.25083
M73 P1 R15
G1 X118.247 Y99.538 E.04735
M204 S1000
G1 X118.622 Y99.642 F10800
M204 S800
G1 F1200
G1 X118.639 Y99.583 E.00193
G1 X119.705 Y98.569 E.04613
G1 X121 Y98.246 E.04185
G1 X129 Y98.246 E.25083
G1 X130.417 Y98.639 E.04611
G1 X131.431 Y99.705 E.04613
G1 X131.754 Y101 E.04185
G1 X131.754 Y109 E.25083
G1 X131.361 Y110.417 E.04611
G1 X130.295 Y111.431 E.04613
G1 X129 Y111.754 E.04185
G1 X121 Y111.754 E.25083
G1 X119.583 Y111.361 E.04611
G1 X118.569 Y110.295 E.04613
G1 X118.246 Y109 E.04185
G1 X118.246 Y101 E.25083
G1 X118.606 Y99.7 E.04229
M204 S1000
G1 X118.979 Y99.812 F10800
M204 S800
G1 F1200
G1 X119.015 Y99.693 E.0039
G1 X120.06 Y98.817 E.04275
G1 X121 Y98.623 E.03009
G1 X129 Y98.623 E.25083
G1 X130.307 Y99.015 E.04278
G1 X131.183 Y100.06 E.04275
G1 X131.377 Y101 E.03009
G1 X131.377 Y109 E.25083
G1 X130.985 Y110.307 E.04278
G1 X129.94 Y111.183 E.04275
G1 X129 Y111.377 E.03009
G1 X121 Y111.377 E.25083
G1 X119.693 Y110.985 E.04278
G1 X118.817 Y109.94 E.04275
G1 X118.623 Y109 E.03009
G1 X118.623 Y101 E.25083
G1 X118.962 Y99.869 E.03702
M204 S1000
; printing object motorPiece v1.stl id:0 copy 0
;WIPE_START
G1 F8640
G1 X119.015 Y99.693 E-.04244
G1 X120.06 Y98.817 E-.31486
G1 X121 Y98.623 E-.22162
G1 X121.957 Y98.623 E-.22108
;WIPE_END
G1 Z.6 F720
G1 X128.213 Y108.213 F10800
G1 Z.2 F720
G1 E.8 F2100
M204 S800
;TYPE:Perimeter
;WIDTH:0.419999
G1 F1200
G1 X121.787 Y108.213 E.20148
G1 X121.787 Y101.787 E.20148
G1 X128.213 Y101.787 E.20148
G1 X128.213 Y108.153 E.1996
M204 S1000
G1 X128.59 Y108.59 F10800
M204 S800
;TYPE:External perimeter
G1 F1200
G1 X121.41 Y108.59 E.22512
G1 X121.41 Y101.41 E.22512
G1 X128.59 Y101.41 E.22512
G1 X128.59 Y108.53 E.22324
M204 S1000
G1 X128.204 Y108.486 F10800
;WIPE_START
G1 F8640
G1 X125.125 Y108.559 E-.8
;WIPE_END
G1 Z.6 F720
G1 X122.628 Y103.508 F10800
G1 Z.2 F720
M73 Q2 S15
G1 E.8 F2100
M204 S800
;TYPE:Perimeter
G1 F1200
G1 X122.628 Y103.194 E.00985
G1 X122.794 Y102.794 E.01358
G1 X123.096 Y102.636 E.01069
G1 X126.806 Y102.628 E.11632
M73 P2 R15
G1 X127.206 Y102.794 E.01358
G1 X127.372 Y103.194 E.01358
G1 X127.372 Y106.806 E.11325
G1 X127.364 Y106.904 E.00308
G1 X127.206 Y107.206 E.01069
G1 X126.904 Y107.364 E.01069
G1 X126.806 Y107.372 E.00308
G1 X123.194 Y107.372 E.11325
G1 X122.794 Y107.206 E.01358
G1 X122.636 Y106.904 E.01069
G1 X122.628 Y106.806 E.00308
G1 X122.628 Y103.568 E.10153
M204 S1000
G1 X123.005 Y103.194 F10800
M204 S800
;TYPE:External perimeter
G1 F1200
G1 X123.06 Y103.06 E.00454
G1 X123.194 Y103.005 E.00454
G1 X126.806 Y103.005 E.11325
G1 X126.94 Y103.06 E.00454
G1 X126.995 Y103.194 E.00454
G1 X126.995 Y106.806 E.11325
G1 X126.94 Y106.94 E.00454
G1 X126.806 Y106.995 E.00454
G1 X123.194 Y106.995 E.11325
G1 X123.06 Y106.94 E.00454
G1 X123.005 Y106.806 E.00454
G1 X123.005 Y103.254 E.11137
M204 S1000
G1 X122.902 Y103.092 F10800
;WIPE_START
G1 F8640
G1 X123.06 Y103.06 E-.04656
G1 X123.194 Y103.005 E-.03345
G1 X126.312 Y103.005 E-.71999
;WIPE_END
G1 Z.6 F720
G1 X128.043 Y102.754 F10800
G1 Z.2 F720
G1 E.8 F2100
M204 S800
;TYPE:Solid infill
;WIDTH:0.436597
G1 F1200
G1 X127.415 Y102.126 E.02907
G1 X126.859 Y102.126 E.0182
G1 X128.043 Y103.311 E.05483
M204 S1000
G1 X127.542 Y103.366 F10800
M204 S800
G1 F1200
G1 X127.874 Y103.698 E.01537
G1 X127.874 Y104.255 E.01823
G1 X127.711 Y104.093 E.00752
G1 X127.711 Y104.649 E.0182
G1 X127.874 Y104.812 E.00755
G1 X127.874 Y105.368 E.0182
G1 X127.711 Y105.206 E.00752
G1 X127.711 Y105.763 E.01823
G1 X127.874 Y105.925 E.00752
G1 X127.874 Y106.482 E.01823
G1 X127.711 Y106.32 E.00752
G1 X127.706 Y106.871 E.01804
G1 X127.874 Y107.039 E.00778
G1 X127.874 Y107.595 E.0182
G1 X127.547 Y107.268 E.01514
G1 X127.452 Y107.452 E.00678
G1 X127.268 Y107.547 E.00678
G1 X127.595 Y107.874 E.01514
G1 X127.038 Y107.874 E.01823
G1 X126.871 Y107.706 E.00775
G1 X126.32 Y107.711 E.01804
G1 X126.482 Y107.874 E.00752
G1 X125.925 Y107.874 E.01823
G1 X125.763 Y107.711 E.00752
G1 X125.206 Y107.711 E.01823
G1 X125.368 Y107.874 E.00752
G1 X124.811 Y107.874 E.01823
G1 X124.649 Y107.711 E.00752
G1 X124.093 Y107.711 E.0182
G1 X124.255 Y107.874 E.00752
G1 X123.698 Y107.874 E.01823
G1 X123.366 Y107.542 E.01537
M204 S1000
;WIPE_START
G1 F8640
G1 X123.698 Y107.874 E-.10841
G1 X124.255 Y107.874 E-.12861
G1 X124.093 Y107.711 E-.05306
G1 X124.649 Y107.711 E-.12838
G1 X124.811 Y107.874 E-.05306
G1 X125.368 Y107.874 E-.12861
G1 X125.206 Y107.711 E-.05306
G1 X125.763 Y107.711 E-.12861
G1 X125.819 Y107.767 E-.0182
;WIPE_END
G1 Z.6 F720
G1 X126.634 Y102.458 F10800
G1 Z.2 F720
G1 E.8 F2100
M204 S800
G1 F1200
G1 X126.302 Y102.126 E.01537
G1 X125.745 Y102.126 E.01823
G1 X125.907 Y102.289 E.00752
G1 X125.351 Y102.289 E.0182
G1 X125.188 Y102.126 E.00755
G1 X124.632 Y102.126 E.0182
G1 X124.794 Y102.289 E.00752
G1 X124.237 Y102.289 E.01823
G1 X124.075 Y102.126 E.00752
G1 X123.518 Y102.126 E.01823
G1 X123.68 Y102.289 E.00752
G1 X123.129 Y102.294 E.01804
G1 X122.962 Y102.126 E.00775
G1 X122.405 Y102.126 E.01823
G1 X122.732 Y102.453 E.01514
G1 X122.542 Y102.552 E.00701
G1 X122.463 Y102.742 E.00674
G1 X122.126 Y102.405 E.0156
G1 X122.126 Y102.962 E.01823
G1 X122.3 Y103.135 E.00803
G1 X122.289 Y103.68 E.01784
G1 X122.126 Y103.518 E.00752
G1 X122.126 Y104.075 E.01823
G1 X122.289 Y104.237 E.00752
G1 X122.289 Y104.794 E.01823
G1 X122.126 Y104.632 E.00752
G1 X122.126 Y105.189 E.01823
G1 X122.289 Y105.351 E.00752
G1 X122.289 Y105.907 E.0182
G1 X122.126 Y105.745 E.00752
G1 X122.126 Y106.302 E.01823
G1 X122.458 Y106.634 E.01537
M204 S1000
G1 X121.957 Y106.689 F10800
M204 S800
M73 P2 R14
G1 F1200
G1 X123.141 Y107.874 E.05483
G1 X122.584 Y107.874 E.01823
G1 X121.957 Y107.246 E.02905
M204 S1000
; stop printing object motorPiece v1.stl id:0 copy 0
M106 S84.15
;LAYER_CHANGE
;Z:0.35
;HEIGHT:0.15
;BEFORE_LAYER_CHANGE
G92 E0.0
;0.35


;WIPE_START
G1 F8640
G1 X122.584 Y107.874 E-.20491
G1 X123.141 Y107.874 E-.12861
G1 X121.957 Y106.689 E-.38679
;WIPE_END
G1 E-.07969 F2100
G1 Z.6 F720
;AFTER_LAYER_CHANGE
;0.35
G1 X117.869 Y106.689 F10800
G1 Z.35 F720
G1 E.8 F2100
;TYPE:Skirt/Brim
;WIDTH:0.42
G1 F1973
G1 X117.869 Y101 E.13759
G1 X118.262 Y99.48 E.03797
G1 X119.344 Y98.342 E.03798
G1 X121 Y97.869 E.04165
G1 X129 Y97.869 E.19348
G1 X130.52 Y98.262 E.03797
G1 X131.658 Y99.344 E.03798
G1 X132.131 Y101 E.04165
G1 X132.131 Y109 E.19348
G1 X131.738 Y110.52 E.03797
G1 X130.656 Y111.658 E.03798
G1 X129 Y112.131 E.04165
G1 X121 Y112.131 E.19348
G1 X119.48 Y111.738 E.03797
G1 X118.342 Y110.656 E.03798
G1 X117.869 Y109 E.04165
G1 X117.869 Y106.749 E.05444
G1 X118.246 Y106.749 F10800
G1 F1973
G1 X118.246 Y101 E.13904
G1 X118.639 Y99.583 E.03556
G1 X119.705 Y98.569 E.03558
G1 X121 Y98.246 E.03228
G1 X129 Y98.246 E.19348
G1 X130.417 Y98.639 E.03556
G1 X131.431 Y99.705 E.03558
G1 X131.754 Y101 E.03228
G1 X131.754 Y109 E.19348
G1 X131.361 Y110.417 E.03556
G1 X130.295 Y111.431 E.03558
G1 X129 Y111.754 E.03228
G1 X121 Y111.754 E.19348
M73 Q2 S14
G1 X119.583 Y111.361 E.03556
G1 X118.569 Y110.295 E.03558
G1 X118.246 Y109 E.03228
G1 X118.246 Y106.809 E.05299
G1 X118.623 Y106.809 F10800
G1 F1973
G1 X118.623 Y101 E.14049
G1 X119.015 Y99.693 E.033
G1 X120.06 Y98.817 E.03298
G1 X121 Y98.623 E.02321
G1 X129 Y98.623 E.19348
G1 X130.307 Y99.015 E.033
M73 Q3 S14
G1 X131.183 Y100.06 E.03298
G1 X131.377 Y101 E.02321
G1 X131.377 Y109 E.19348
G1 X130.985 Y110.307 E.033
M73 P3 R14
G1 X129.94 Y111.183 E.03298
G1 X129 Y111.377 E.02321
G1 X121 Y111.377 E.19348
G1 X119.693 Y110.985 E.033
G1 X118.817 Y109.94 E.03298
G1 X118.623 Y109 E.02321
G1 X118.623 Y106.869 E.05154
; printing object motorPiece v1.stl id:0 copy 0
;WIPE_START
G1 F8640
G1 X118.623 Y103.404 E-.8
;WIPE_END
G1 Z.75 F720
G1 X128.357 Y108.357 F10800
G1 Z.35 F720
G1 E.8 F2100
M204 S800
;TYPE:Perimeter
;WIDTH:0.449999
G1 F1500
G1 X121.643 Y108.357 E.17494
G1 X121.643 Y101.643 E.17494
G1 X128.357 Y101.643 E.17494
G1 X128.357 Y108.297 E.17337
M204 S1000
G1 X128.775 Y108.775 F10800
M204 S800
;TYPE:External perimeter
G1 F1500
G1 X121.225 Y108.775 E.19672
G1 X121.225 Y101.225 E.19672
G1 X128.775 Y101.225 E.19672
G1 X128.775 Y108.715 E.19516
M204 S1000
G1 X128.389 Y108.671 F10800
;WIPE_START
G1 F8640
G1 X125.31 Y108.743 E-.8
;WIPE_END
G1 Z.75 F720
G1 X122.937 Y103.001 F10800
G1 Z.35 F720
G1 E.8 F2100
M204 S800
;TYPE:Perimeter
G1 F1500
G1 X122.956 Y102.956 E.00127
G1 X123.291 Y102.782 E.00984
G1 X123.399 Y102.772 E.00283
G1 X126.601 Y102.772 E.08343
G1 X127.044 Y102.956 E.0125
G1 X127.228 Y103.399 E.0125
G1 X127.228 Y106.601 E.08343
G1 X127.218 Y106.709 E.00283
G1 X127.044 Y107.044 E.00984
G1 X126.709 Y107.218 E.00984
G1 X126.601 Y107.228 E.00283
G1 X123.399 Y107.228 E.08343
G1 X122.956 Y107.044 E.0125
G1 X122.782 Y106.709 E.00984
G1 X122.772 Y106.601 E.00283
G1 X122.772 Y103.399 E.08343
G1 X122.914 Y103.056 E.00967
M204 S1000
G1 X123.251 Y103.251 F10800
M204 S800
;TYPE:External perimeter
G1 F1500
G1 X123.399 Y103.19 E.00417
G1 X126.601 Y103.19 E.08343
G1 X126.749 Y103.251 E.00417
G1 X126.81 Y103.399 E.00417
G1 X126.81 Y106.601 E.08343
G1 X126.749 Y106.749 E.00417
G1 X126.601 Y106.81 E.00417
G1 X123.399 Y106.81 E.08343
G1 X123.251 Y106.749 E.00417
G1 X123.19 Y106.601 E.00417
G1 X123.19 Y103.399 E.08343
G1 X123.228 Y103.307 E.00259
M204 S1000
G1 X123.211 Y103.096 F10800
;WIPE_START
G1 F8640
G1 X123.399 Y103.19 E-.04784
G1 X126.601 Y103.19 E-.73935
G1 X126.652 Y103.211 E-.01281
;WIPE_END
G1 Z.75 F720
G1 X126.384 Y102.406 F10800
G1 Z.35 F720
G1 E.8 F2100
;TYPE:Solid infill
;WIDTH:0.429758
G1 F1973
G1 X123.401 Y102.406 E.07396
;WIDTH:0.43866
G1 X123.231 Y102.417 E.00432
;WIDTH:0.449999
G1 X122.744 Y102.653 E.0141
G1 X122.648 Y102.758 E.00371
G1 X122.406 Y103.407 E.01805
;WIDTH:0.429758
G1 X122.406 Y106.599 E.07914
;WIDTH:0.438659
G1 X122.417 Y106.769 E.00432
;WIDTH:0.449999
G1 X122.653 Y107.256 E.0141
G1 X122.758 Y107.352 E.00371
G1 X123.407 Y107.594 E.01805
;WIDTH:0.429758
G1 X126.599 Y107.594 E.07914
;WIDTH:0.442308
G1 X126.828 Y107.565 E.0059
;WIDTH:0.449999
G1 X127.309 Y107.309 E.0142
G1 X127.565 Y106.828 E.0142
;WIDTH:0.441949
G1 X127.594 Y106.599 E.0059
;WIDTH:0.429757
G1 X127.594 Y103.407 E.07914
;WIDTH:0.43664
G1 X127.582 Y103.33 E.00197
;WIDTH:0.449999
G1 X127.353 Y102.76 E.01601
G1 X127.24 Y102.647 E.00416
G1 X126.593 Y102.406 E.01799
;WIDTH:0.429757
G1 X126.593 Y102.009 E.00984
G1 X123.401 Y102.009 E.07914
;WIDTH:0.449999
G1 X122.019 Y102.019 E.03601
G1 X122.013 Y103.249 E.03205
;WIDTH:0.4378
G1 X122.009 Y103.407 E.004
;WIDTH:0.429758
G1 X122.009 Y106.599 E.07914
;WIDTH:0.449999
G1 X122.019 Y107.981 E.03601
G1 X123.249 Y107.987 E.03205
;WIDTH:0.4378
G1 X123.407 Y107.991 E.004
;WIDTH:0.429758
G1 X126.599 Y107.991 E.07914
;WIDTH:0.449999
G1 X127.981 Y107.981 E.03601
G1 X127.988 Y106.769 E.03158
;WIDTH:0.436364
G1 X127.991 Y106.599 E.00429
;WIDTH:0.429757
G1 X127.991 Y103.407 E.07914
;WIDTH:0.449999
G1 X127.981 Y102.019 E.03617
G1 X126.802 Y102.013 E.03072
; stop printing object motorPiece v1.stl id:0 copy 0
M106 S170.85
;LAYER_CHANGE
;Z:0.5
;HEIGHT:0.15
;BEFORE_LAYER_CHANGE
G92 E0.0
;0.5


;WIPE_START
G1 F8640
G1 X127.365 Y102.019 E-.13001
G1 X127.981 Y102.019 E-.14224
G1 X127.981 Y102.635 E-.14224
G1 X127.991 Y103.407 E-.17827
G1 X127.991 Y104.305 E-.20724
;WIPE_END
G1 Z.75 F720
;AFTER_LAYER_CHANGE
;0.5
G1 X132.131 Y104.305 F10800
G1 Z.5 F720
G1 E.8 F2100
;TYPE:Skirt/Brim
;WIDTH:0.42
G1 F1915
G1 X132.131 Y109 E.11355
G1 X131.738 Y110.52 E.03797
G1 X130.656 Y111.658 E.03798
G1 X129 Y112.131 E.04165
G1 X121 Y112.131 E.19348
G1 X119.48 Y111.738 E.03797
G1 X118.342 Y110.656 E.03798
G1 X117.869 Y109 E.04165
G1 X117.869 Y101 E.19348
G1 X118.262 Y99.48 E.03797
G1 X119.344 Y98.342 E.03798
G1 X121 Y97.869 E.04165
G1 X129 Y97.869 E.19348
G1 X130.52 Y98.262 E.03797
M73 Q4 S14
G1 X131.658 Y99.344 E.03798
G1 X132.131 Y101 E.04165
G1 X132.131 Y104.245 E.07848
G1 X131.754 Y104.245 F10800
M73 P4 R14
G1 F1915
G1 X131.754 Y109 E.115
G1 X131.361 Y110.417 E.03556
G1 X130.295 Y111.431 E.03558
G1 X129 Y111.754 E.03228
G1 X121 Y111.754 E.19348
G1 X119.583 Y111.361 E.03556
G1 X118.569 Y110.295 E.03558
G1 X118.246 Y109 E.03228
G1 X118.246 Y101 E.19348
G1 X118.639 Y99.583 E.03556
G1 X119.705 Y98.569 E.03558
G1 X121 Y98.246 E.03228
G1 X129 Y98.246 E.19348
G1 X130.417 Y98.639 E.03556
G1 X131.431 Y99.705 E.03558
G1 X131.754 Y101 E.03228
G1 X131.754 Y104.185 E.07703
G1 X131.377 Y104.185 F10800
G1 F1915
G1 X131.377 Y109 E.11645
G1 X130.985 Y110.307 E.033
G1 X129.94 Y111.183 E.03298
G1 X129 Y111.377 E.02321
G1 X121 Y111.377 E.19348
G1 X119.693 Y110.985 E.033
G1 X118.817 Y109.94 E.03298
G1 X118.623 Y109 E.02321
G1 X118.623 Y101 E.19348
G1 X119.015 Y99.693 E.033
G1 X120.06 Y98.817 E.03298
G1 X121 Y98.623 E.02321
G1 X129 Y98.623 E.19348
G1 X130.307 Y99.015 E.033
G1 X131.183 Y100.06 E.03298
G1 X131.377 Y101 E.02321
G1 X131.377 Y104.125 E.07558
; printing object motorPiece v1.stl id:0 copy 0
;WIPE_START
G1 F8640
G1 X131.377 Y107.59 E-.8
;WIPE_END
G1 Z.9 F720
G1 X128.357 Y108.357 F10800
G1 Z.5 F720
G1 E.8 F2100
M204 S800
;TYPE:Perimeter
;WIDTH:0.449999
G1 F1500
G1 X121.643 Y108.357 E.17494
G1 X121.643 Y101.643 E.17494
G1 X128.357 Y101.643 E.17494
G1 X128.357 Y108.297 E.17337
M204 S1000
G1 X128.775 Y108.775 F10800
M204 S800
;TYPE:External perimeter
G1 F1500
G1 X121.225 Y108.775 E.19672
G1 X121.225 Y101.225 E.19672
G1 X128.775 Y101.225 E.19672
G1 X128.775 Y108.715 E.19516
M204 S1000
G1 X128.389 Y108.671 F10800
;WIPE_START
G1 F8640
G1 X125.31 Y108.743 E-.8
;WIPE_END
G1 Z.9 F720
G1 X122.937 Y103.001 F10800
G1 Z.5 F720
G1 E.8 F2100
M204 S800
;TYPE:Perimeter
G1 F1500

G1 X122.956 Y102.956 E.00127
G1 X123.291 Y102.782 E.00984
G1 X123.399 Y102.772 E.00283
G1 X126.601 Y102.772 E.08343
G1 X127.044 Y102.956 E.0125
G1 X127.228 Y103.399 E.0125
G1 X127.228 Y106.601 E.08343
G1 X127.218 Y106.709 E.00283
G1 X127.044 Y107.044 E.00984
G1 X126.709 Y107.218 E.00984
G1 X126.601 Y107.228 E.00283
G1 X123.399 Y107.228 E.08343
G1 X122.956 Y107.044 E.0125
G1 X122.782 Y106.709 E.00984
G1 X122.772 Y106.601 E.00283
G1 X122.772 Y103.399 E.08343
G1 X122.914 Y103.056 E.00967

M204 S1000
